build/img/logo-header.svg

<svg width="242" height="50" viewBox="0 0 242 50" fill="none" xmlns="http://www.w3.org/2000/svg">
<g clip-path="url(#clip0_1:2804)">
<path d="M162.254 24.0414V17.0127H168.958C169.905 17.0127 170.615 17.3322 171.088 17.8913C171.561 18.4504 171.798 19.4088 171.798 20.6069C171.798 21.7251 171.561 22.6037 171.009 23.1628C170.536 23.7219 169.747 24.0414 168.879 24.0414H162.254ZM162.254 34.5846V27.3162H170.22C171.325 27.3162 172.35 27.1565 173.139 26.7571C173.928 26.4376 174.638 25.9584 175.19 25.3194C175.742 24.6804 176.136 24.0414 176.373 23.2427C176.61 22.444 176.767 21.6453 176.767 20.7667C176.767 19.8082 176.688 18.8497 176.452 18.051C176.215 17.2523 175.9 16.4536 175.347 15.8945C174.874 15.2555 174.164 14.7763 173.297 14.4568C172.429 14.1373 171.404 13.9775 170.141 13.9775H157.836V34.6644H162.254V34.5846Z" fill="#F25B24"/>
<path d="M187.653 34.9839C189.072 34.9839 190.256 34.9041 191.281 34.5846C192.306 34.3449 193.174 33.8657 193.884 33.3066C194.594 32.7475 195.067 31.9488 195.383 30.9104C195.698 29.8721 195.856 28.674 195.856 27.1564C195.856 25.6389 195.698 24.4408 195.383 23.4823C195.067 22.5239 194.515 21.7251 193.805 21.166C193.095 20.6069 192.228 20.2076 191.202 19.968C190.177 19.7283 188.915 19.5686 187.574 19.6485C186.233 19.6485 184.971 19.7283 183.945 19.968C182.92 20.2076 182.052 20.6069 181.342 21.166C180.632 21.7251 180.159 22.5239 179.844 23.4823C179.528 24.4408 179.291 25.7187 179.291 27.1564C179.291 28.674 179.449 29.8721 179.765 30.9104C180.08 31.9488 180.632 32.7475 181.263 33.3066C181.973 33.8657 182.841 34.3449 183.866 34.5846C185.05 34.8242 186.233 34.9839 187.653 34.9839ZM187.653 22.3641C188.362 22.3641 189.072 22.444 189.546 22.5239C190.098 22.6037 190.492 22.8434 190.808 23.2427C191.123 23.5622 191.36 24.0414 191.439 24.6804C191.596 25.3194 191.675 26.1181 191.675 27.2363C191.675 28.2747 191.596 29.0734 191.439 29.7124C191.281 30.3513 191.123 30.8306 190.808 31.1501C190.492 31.4695 190.098 31.7092 189.546 31.8689C189.072 32.0287 188.441 32.0287 187.653 32.0287C186.943 32.0287 186.312 31.9488 185.838 31.8689C185.365 31.7092 184.971 31.4695 184.655 31.1501C184.34 30.8306 184.103 30.3513 184.024 29.7124C183.866 29.0734 183.866 28.2747 183.866 27.2363C183.866 26.198 183.945 25.3194 184.024 24.6804C184.182 24.0414 184.34 23.5622 184.655 23.2427C184.971 22.9232 185.365 22.6836 185.838 22.5239C186.233 22.444 186.864 22.3641 187.653 22.3641Z" fill="#F25B24"/>
<path d="M204.217 19.968H200.037V34.5846H204.217V19.968ZM202.087 13.8977C201.456 13.8977 200.983 13.8977 200.589 13.9776C200.194 14.0574 199.958 14.2172 199.8 14.4568C199.642 14.6964 199.563 15.0958 199.563 15.575C199.563 16.1341 199.642 16.5335 199.8 16.853C199.958 17.1725 200.194 17.3322 200.589 17.4121C200.904 17.492 201.456 17.5718 202.087 17.5718C202.718 17.5718 203.192 17.492 203.507 17.4121C203.823 17.3322 204.138 17.0926 204.296 16.853C204.454 16.5335 204.533 16.1341 204.533 15.575C204.533 15.0958 204.454 14.6964 204.296 14.4568C204.138 14.2172 203.902 14.0574 203.507 13.9776C203.192 13.8977 202.718 13.8977 202.087 13.8977Z" fill="#F25B24"/>
<path d="M221.334 20.3673C220.782 20.2076 220.151 20.0478 219.441 19.968C218.731 19.8881 218.1 19.7283 217.39 19.6485C216.68 19.5686 216.049 19.5686 215.497 19.5686C213.998 19.5686 212.736 19.7283 211.632 19.968C210.527 20.2875 209.66 20.7667 209.029 21.4855C208.398 22.2044 208.082 23.1629 208.082 24.4408C208.082 25.4791 208.319 26.198 208.713 26.837C209.186 27.3961 209.818 27.8753 210.685 28.1149C211.553 28.3545 212.657 28.5942 213.919 28.674C214.945 28.7539 215.733 28.8338 216.207 28.9935C216.759 29.1533 217.153 29.313 217.311 29.5526C217.548 29.7922 217.627 30.0319 217.627 30.4312C217.627 30.9105 217.469 31.3098 217.232 31.5494C216.995 31.7891 216.601 31.9488 216.128 32.0287C215.655 32.1085 214.945 32.1884 214.235 32.1884C213.604 32.1884 213.052 32.1884 212.42 32.1085C211.789 32.0287 211.158 31.9488 210.606 31.8689C210.054 31.7891 209.502 31.6293 209.108 31.5494L208.24 34.345C208.634 34.5047 209.108 34.5846 209.66 34.6645C210.212 34.7443 210.685 34.8242 211.316 34.9041C211.868 34.9839 212.421 35.0638 212.973 35.0638C213.525 35.0638 213.998 35.1437 214.471 35.1437C215.97 35.1437 217.232 34.9839 218.336 34.7443C219.441 34.4248 220.308 33.9456 220.939 33.2268C221.57 32.5079 221.886 31.5494 221.886 30.2715C221.886 29.313 221.649 28.5143 221.255 27.9552C220.861 27.3162 220.151 26.9168 219.283 26.5974C218.415 26.2779 217.232 26.0383 215.812 25.9584C214.866 25.8785 214.156 25.7986 213.604 25.6389C213.052 25.4791 212.736 25.3194 212.499 25.1597C212.263 24.92 212.184 24.6804 212.184 24.3609C212.184 23.8817 212.342 23.4823 212.578 23.2427C212.815 23.0031 213.13 22.8434 213.604 22.7635C214.077 22.6836 214.629 22.6836 215.339 22.6836C215.891 22.6836 216.522 22.6836 217.153 22.7635C217.784 22.8434 218.336 22.9232 218.889 23.0031C219.441 23.083 219.914 23.2427 220.387 23.3226L221.334 20.3673Z" fill="#F25B24"/>
<path d="M225.593 34.5846V13.8179H229.774V24.5207H232.219C233.323 23.4025 234.743 21.8051 236.478 19.8882H241.527C239.87 21.8051 238.45 23.3227 237.267 24.361C236.163 25.4792 235.374 26.1981 234.901 26.4377C235.216 26.5974 235.69 26.9968 236.321 27.6358C236.952 28.2747 237.819 29.1533 238.766 30.2715C239.713 31.3898 240.817 32.7476 242.079 34.4249H237.11C235.138 32.0287 233.56 30.1917 232.377 28.9137C232.298 28.8338 232.219 28.754 232.219 28.754H229.932V34.5048H225.593V34.5846Z" fill="#F25B24"/>
<path d="M70.5965 31.2299C70.3599 31.3098 70.0444 31.3098 69.7288 31.3897C69.4133 31.4695 69.0189 31.4696 68.7034 31.4696C68.309 31.4696 67.9146 31.4696 67.5991 31.5494C66.3371 31.5494 65.2328 31.4696 64.2862 31.3098C63.3397 31.1501 62.6298 30.8306 62.0776 30.2715C61.5255 29.7922 61.1311 29.0734 60.8155 28.1149C60.5 27.1565 60.4212 25.9584 60.4212 24.4408C60.4212 23.2427 60.5 22.2044 60.6578 21.4057C60.8156 20.6069 61.0522 19.8881 61.4466 19.4088C61.841 18.9296 62.2354 18.5303 62.8664 18.2906C63.4185 18.051 64.1285 17.8114 64.9172 17.7315C65.706 17.6517 66.6526 17.5718 67.7569 17.5718C68.1513 17.5718 68.6245 17.5718 69.1767 17.5718C69.7288 17.5718 70.281 17.6517 70.8332 17.6517C71.3853 17.7315 71.9375 17.8114 72.4107 17.8114C72.884 17.8913 73.3573 17.9711 73.6728 18.051L74.6193 14.7763C74.1461 14.6964 73.5939 14.5366 73.0418 14.4568C72.4107 14.3769 71.8586 14.297 71.1487 14.2172C70.5176 14.1373 69.8866 14.1373 69.2556 14.0574C68.6245 13.9775 68.0724 13.9775 67.5202 13.9775C65.6272 13.9775 63.8918 14.1373 62.472 14.4568C60.9733 14.7763 59.7901 15.3354 58.7647 16.0542C57.7393 16.8529 57.0294 17.8913 56.5561 19.2491C56.0828 20.6069 55.8462 22.2842 55.8462 24.2811C55.8462 26.2779 56.0828 27.9552 56.5561 29.3929C56.7927 30.8306 57.4238 31.9488 58.3703 32.7475C59.3169 33.5462 60.4212 34.1053 61.841 34.5047C63.2608 34.8242 64.8384 34.9839 66.7315 34.9839C67.4414 34.9839 68.1513 34.9839 68.9401 34.9041C69.7288 34.8242 70.5176 34.8242 71.2275 34.7443C72.0163 34.6644 72.7262 34.5846 73.3573 34.5047C73.9883 34.4248 74.6193 34.2651 75.0926 34.1852V23.0031H65.4694V26.198H70.5965V31.2299Z" fill="#2D1686"/>
<path d="M84.1637 13.8179H79.9831V34.5048H84.1637V13.8179Z" fill="#2D1686"/>
<path d="M96.7054 34.9839C98.1252 34.9839 99.3084 34.9041 100.334 34.5846C101.359 34.3449 102.227 33.8657 102.937 33.3066C103.647 32.7475 104.12 31.9488 104.435 30.9104C104.751 29.8721 104.988 28.674 104.988 27.1564C104.988 25.6389 104.83 24.4408 104.435 23.4823C104.041 22.5239 103.568 21.7251 102.858 21.166C102.148 20.6069 101.28 20.2076 100.255 19.968C99.2295 19.7283 97.9674 19.5686 96.6265 19.6485C95.2856 19.6485 94.0235 19.7283 93.077 19.968C92.0515 20.2076 91.1839 20.6069 90.474 21.166C89.7641 21.7251 89.2908 22.5239 88.9753 23.4823C88.6598 24.4408 88.4231 25.7187 88.4231 27.1564C88.4231 28.674 88.5809 29.8721 88.9753 30.9104C89.2908 31.9488 89.8429 32.7475 90.474 33.3066C91.1839 33.8657 92.0515 34.3449 93.077 34.5846C94.1024 34.8242 95.2856 34.9839 96.7054 34.9839ZM96.7054 22.3641C97.4942 22.3641 98.1252 22.444 98.5985 22.5239C99.0717 22.6037 99.545 22.8434 99.8605 23.2427C100.176 23.5622 100.413 24.0414 100.492 24.6804C100.649 25.3194 100.728 26.1181 100.649 27.2363C100.649 28.2747 100.57 29.0734 100.492 29.7124C100.334 30.3513 100.176 30.8306 99.8605 31.1501C99.545 31.4695 99.1506 31.7092 98.5985 31.8689C98.0463 32.0287 97.4942 32.0287 96.7054 32.0287C95.9955 32.0287 95.3645 31.9488 94.8912 31.8689C94.4179 31.7092 94.0235 31.4695 93.708 31.1501C93.3925 30.8306 93.2347 30.3513 93.077 29.7124C92.9192 29.0734 92.9192 28.2747 92.9192 27.2363C92.9192 26.198 92.9981 25.3194 93.077 24.6804C93.2347 24.0414 93.3925 23.5622 93.708 23.2427C94.0235 22.9232 94.4179 22.6836 94.8912 22.5239C95.2856 22.444 95.9166 22.3641 96.7054 22.3641Z" fill="#2D1686"/>
<path d="M113.27 24.0415C113.27 23.722 113.428 23.4824 113.743 23.3227C114.059 23.083 114.453 23.0032 115.005 22.8434C115.557 22.7636 116.11 22.6837 116.741 22.6837C117.687 22.6837 118.476 22.7636 119.107 23.083C119.659 23.3227 120.132 23.8019 120.29 24.4409C120.527 25.0799 120.685 26.0383 120.685 27.2364C120.685 28.2747 120.606 29.0735 120.448 29.7124C120.29 30.3514 120.054 30.8307 119.738 31.1501C119.422 31.4696 119.028 31.7092 118.555 31.869C118.082 31.9489 117.45 32.0287 116.662 32.0287C116.11 32.0287 115.557 32.0287 114.926 31.9489C114.374 31.869 113.822 31.7891 113.27 31.6294V24.0415V24.0415ZM109.089 33.8658C109.563 34.0255 110.115 34.1853 110.746 34.2652C111.377 34.345 112.008 34.5048 112.639 34.5846C113.349 34.6645 113.98 34.7444 114.69 34.8243C115.4 34.9041 116.031 34.9041 116.662 34.9041C118.082 34.9041 119.344 34.8243 120.369 34.5048C121.394 34.2652 122.262 33.7859 122.972 33.2268C123.682 32.5878 124.155 31.7891 124.471 30.8307C124.786 29.7923 124.944 28.5942 124.944 27.0767C124.944 25.639 124.786 24.361 124.471 23.4025C124.155 22.4441 123.761 21.6453 123.13 21.0862C122.499 20.5271 121.789 20.1278 120.921 19.8083C120.054 19.5687 118.949 19.4089 117.766 19.4888C116.819 19.4888 115.952 19.5687 115.163 19.8083C114.374 19.968 113.743 20.2076 113.27 20.4473V13.8179H109.089V33.8658V33.8658Z" fill="#2D1686"/>
<path d="M143.48 25.1597C143.48 23.722 143.244 22.6038 142.692 21.7252C142.14 20.9265 141.351 20.2875 140.246 19.968C139.142 19.6485 137.722 19.4888 136.066 19.4888C135.198 19.4888 134.409 19.4888 133.542 19.5686C132.753 19.6485 131.885 19.7284 131.175 19.8881C130.466 19.968 129.756 20.1277 129.125 20.2875L129.913 23.2428C130.623 23.0031 131.412 22.8434 132.359 22.7635C133.305 22.6038 134.173 22.6038 135.198 22.5239C136.066 22.5239 136.855 22.5239 137.407 22.6837C137.959 22.7635 138.432 22.9233 138.748 23.1629C139.063 23.4025 139.3 23.722 139.379 24.1214C139.458 24.5207 139.537 25.0798 139.537 25.7188C138.827 25.5591 138.117 25.4792 137.407 25.3993C136.697 25.3194 135.987 25.3194 135.277 25.3194C134.252 25.3194 133.305 25.3993 132.516 25.4792C131.649 25.5591 130.939 25.7987 130.387 26.198C129.756 26.5175 129.282 26.9968 128.967 27.6357C128.651 28.2747 128.494 29.0734 128.494 30.1118C128.494 31.3897 128.73 32.3482 129.203 33.067C129.677 33.7859 130.465 34.2651 131.491 34.5846C132.595 34.9041 134.015 34.984 135.829 34.984C136.46 34.984 137.091 34.984 137.722 34.9041C138.432 34.8242 139.063 34.7444 139.773 34.6645C140.483 34.5846 141.114 34.4249 141.824 34.2651C142.455 34.1054 143.086 33.9456 143.638 33.7859V25.1597H143.48ZM139.379 31.7092C138.906 31.869 138.353 31.9488 137.722 32.0287C137.091 32.1086 136.539 32.1884 135.908 32.1884C135.04 32.1884 134.409 32.1086 133.936 32.0287C133.463 31.9488 133.147 31.7092 132.99 31.3897C132.832 31.0702 132.674 30.591 132.753 29.952C132.753 29.3131 132.832 28.9137 133.068 28.5942C133.305 28.2747 133.621 28.115 134.094 28.0351C134.567 27.9552 135.198 27.8754 135.987 27.8754C136.618 27.8754 137.249 27.8754 137.801 27.9552C138.353 28.0351 138.906 28.0351 139.379 28.115V31.7092V31.7092Z" fill="#2D1686"/>
<path d="M152.236 13.8179H148.055V34.5048H152.236V13.8179Z" fill="#2D1686"/>
<path fill-rule="evenodd" clip-rule="evenodd" d="M0 25C0 11.1821 11.043 0 24.689 0C32.5769 0 39.5183 3.75399 44.0143 9.50479C44.7243 10.3834 44.5665 11.6613 43.6988 12.3003C42.8312 13.0192 41.5691 12.8594 40.9381 11.9808C37.1519 7.10863 31.236 3.99361 24.689 3.99361C13.2516 3.99361 3.94394 13.4185 3.94394 25C3.94394 36.5815 13.2516 46.0064 24.689 46.0064C31.236 46.0064 37.1519 42.8914 40.9381 38.0192C41.648 37.1406 42.91 36.9808 43.6988 37.6997C44.5665 38.4185 44.7243 39.6965 44.0143 40.4952C39.5183 46.246 32.498 50 24.689 50C11.043 50 0 38.8179 0 25Z" fill="#2D1686"/>
<path fill-rule="evenodd" clip-rule="evenodd" d="M24.6891 39.7763C16.6434 39.7763 10.0965 33.147 10.0965 25C10.0965 16.853 16.6434 10.2236 24.6891 10.2236C34.7067 10.2236 47.4061 22.0447 47.4061 25C47.4061 27.9553 34.7067 39.7763 24.6891 39.7763ZM24.6891 17.4121C20.5085 17.4121 17.1956 20.8466 17.1956 25C17.1956 29.1533 20.5874 32.5878 24.6891 32.5878C28.8696 32.5878 32.1825 29.1533 32.1825 25C32.1825 20.8466 28.7908 17.4121 24.6891 17.4121Z" fill="#F25B24"/>
</g>
<defs>
<clipPath id="clip0_1:2804">
<rect width="242" height="50" fill="white"/>
</clipPath>
</defs>
</svg>

<svg width="242" height="50" fill="none" xmlns="http://www.w3.org/2000/svg"><g clip-path="url(#clip0_1:2804)"><path d="M162.254 24.041v-7.028h6.704c.947 0 1.657.32 2.13.878.473.56.71 1.518.71 2.716 0 1.118-.237 1.997-.789 2.556-.473.559-1.262.878-2.13.878h-6.625zm0 10.544v-7.269h7.966c1.105 0 2.13-.16 2.919-.559.789-.32 1.499-.799 2.051-1.438.552-.639.946-1.278 1.183-2.076.237-.799.394-1.598.394-2.476 0-.959-.079-1.917-.315-2.716-.237-.799-.552-1.597-1.105-2.156-.473-.64-1.183-1.119-2.05-1.438-.868-.32-1.893-.48-3.156-.48h-12.305v20.687h4.418v-.08zm25.399.399c1.419 0 2.603-.08 3.628-.4a6.658 6.658 0 002.603-1.277c.71-.56 1.183-1.358 1.499-2.397.315-1.038.473-2.236.473-3.754 0-1.517-.158-2.715-.473-3.674-.316-.958-.868-1.757-1.578-2.316-.71-.56-1.577-.958-2.603-1.198a12.78 12.78 0 00-3.628-.32c-1.341 0-2.603.08-3.629.32-1.025.24-1.893.639-2.603 1.198-.71.56-1.183 1.358-1.498 2.316-.316.959-.553 2.237-.553 3.674 0 1.518.158 2.716.474 3.754.315 1.039.867 1.838 1.498 2.397a6.658 6.658 0 002.603 1.278c1.184.24 2.367.399 3.787.399zm0-12.62c.709 0 1.419.08 1.893.16.552.08.946.32 1.262.719.315.32.552.798.631 1.437.157.64.236 1.438.236 2.556 0 1.039-.079 1.837-.236 2.476-.158.64-.316 1.119-.631 1.438-.316.32-.71.56-1.262.719-.474.16-1.105.16-1.893.16-.71 0-1.341-.08-1.815-.16-.473-.16-.867-.4-1.183-.719-.315-.32-.552-.799-.631-1.438-.158-.639-.158-1.437-.158-2.476 0-1.038.079-1.917.158-2.556.158-.639.316-1.118.631-1.437.316-.32.71-.56 1.183-.72a9.473 9.473 0 011.815-.159zm16.564-2.396h-4.18v14.617h4.18V19.968zm-2.13-6.07c-.631 0-1.104 0-1.498.08-.395.08-.631.24-.789.479-.158.24-.237.639-.237 1.118 0 .56.079.959.237 1.278.158.32.394.48.789.56.315.079.867.159 1.498.159s1.105-.08 1.42-.16c.316-.08.631-.32.789-.559.158-.32.237-.719.237-1.278 0-.48-.079-.879-.237-1.118-.158-.24-.394-.4-.789-.48-.315-.08-.789-.08-1.42-.08zm19.247 6.469a11.25 11.25 0 00-1.893-.399c-.71-.08-1.341-.24-2.051-.32-.71-.08-1.341-.08-1.893-.08-1.499 0-2.761.16-3.865.4-1.105.32-1.972.799-2.603 1.517-.631.72-.947 1.678-.947 2.956 0 1.038.237 1.757.631 2.396a3.897 3.897 0 001.972 1.278c.868.24 1.972.48 3.234.559 1.026.08 1.814.16 2.288.32.552.16.946.319 1.104.559.237.24.316.479.316.878 0 .48-.158.879-.395 1.118-.237.24-.631.4-1.104.48-.473.08-1.183.16-1.893.16-.631 0-1.183 0-1.815-.08-.631-.08-1.262-.16-1.814-.24-.552-.08-1.104-.24-1.498-.32l-.868 2.796c.394.16.868.24 1.42.32.552.08 1.025.16 1.656.24.552.079 1.105.159 1.657.159s1.025.08 1.498.08c1.499 0 2.761-.16 3.865-.4 1.105-.32 1.972-.798 2.603-1.517.631-.72.947-1.678.947-2.955 0-.959-.237-1.758-.631-2.317-.394-.639-1.104-1.038-1.972-1.358-.868-.32-2.051-.559-3.471-.639-.946-.08-1.656-.16-2.208-.32-.552-.159-.868-.319-1.105-.478-.236-.24-.315-.48-.315-.8 0-.478.158-.878.394-1.117.237-.24.552-.4 1.026-.48.473-.08 1.025-.08 1.735-.08.552 0 1.183 0 1.814.08s1.183.16 1.736.24c.552.08 1.025.24 1.498.32l.947-2.956zm4.259 14.218V13.818h4.181V24.52h2.445c1.104-1.119 2.524-2.716 4.259-4.633h5.049c-1.657 1.917-3.077 3.435-4.26 4.473-1.104 1.118-1.893 1.837-2.366 2.077.315.16.789.559 1.42 1.198a45.07 45.07 0 012.445 2.636 91.234 91.234 0 013.313 4.153h-4.969c-1.972-2.396-3.55-4.233-4.733-5.511l-.158-.16h-2.287v5.75h-4.339v.08z" fill="#F25B24"/><path d="M70.597 31.23c-.237.08-.553.08-.868.16-.316.08-.71.08-1.026.08-.394 0-.788 0-1.104.08-1.262 0-2.366-.08-3.313-.24-.946-.16-1.656-.48-2.208-1.038-.553-.48-.947-1.199-1.263-2.157-.315-.958-.394-2.157-.394-3.674 0-1.198.079-2.237.237-3.035.158-.8.394-1.518.789-1.997.394-.48.788-.879 1.42-1.118a6.974 6.974 0 012.05-.56 27.52 27.52 0 012.84-.16h1.42c.552 0 1.104.08 1.656.08.552.08 1.105.16 1.578.16.473.08.946.16 1.262.24l.946-3.275c-.473-.08-1.025-.24-1.577-.32-.631-.08-1.183-.159-1.893-.239-.631-.08-1.262-.08-1.893-.16-.632-.08-1.184-.08-1.736-.08-1.893 0-3.628.16-5.048.48-1.499.32-2.682.878-3.707 1.597-1.026.799-1.736 1.837-2.209 3.195-.473 1.358-.71 3.035-.71 5.032 0 1.997.237 3.674.71 5.112.237 1.438.868 2.556 1.814 3.355.947.798 2.051 1.357 3.471 1.757 1.42.32 2.997.479 4.89.479.71 0 1.42 0 2.21-.08.788-.08 1.577-.08 2.287-.16.788-.08 1.498-.16 2.13-.24.63-.08 1.261-.239 1.735-.319V23.003h-9.624v3.195h5.128v5.032zm13.567-17.412h-4.18v20.687h4.18V13.818zm12.541 21.166c1.42 0 2.603-.08 3.629-.4a6.658 6.658 0 002.603-1.277c.71-.56 1.183-1.358 1.498-2.397.316-1.038.553-2.236.553-3.754 0-1.517-.158-2.715-.553-3.674-.394-.958-.867-1.757-1.577-2.316-.71-.56-1.578-.958-2.603-1.198-1.025-.24-2.288-.4-3.629-.32-1.34 0-2.603.08-3.549.32-1.025.24-1.893.639-2.603 1.198-.71.56-1.183 1.358-1.499 2.316-.315.959-.552 2.237-.552 3.674 0 1.518.158 2.716.552 3.754.316 1.039.868 1.838 1.499 2.397a6.654 6.654 0 002.603 1.278c1.025.24 2.209.399 3.628.399zm0-12.62c.79 0 1.42.08 1.894.16.473.08.946.32 1.261.719.316.32.553.798.632 1.437.157.64.236 1.438.157 2.556 0 1.039-.079 1.837-.157 2.476-.158.64-.316 1.119-.632 1.438-.315.32-.71.56-1.261.719-.553.16-1.105.16-1.894.16-.71 0-1.34-.08-1.814-.16a2.97 2.97 0 01-1.183-.719c-.316-.32-.473-.799-.631-1.438-.158-.639-.158-1.437-.158-2.476 0-1.038.08-1.917.158-2.556.158-.639.316-1.118.631-1.437.316-.32.71-.56 1.183-.72a9.46 9.46 0 011.814-.159zm16.565 1.677c0-.319.158-.559.473-.718.316-.24.71-.32 1.262-.48.552-.08 1.105-.16 1.736-.16.946 0 1.735.08 2.366.4.552.24 1.025.719 1.183 1.358.237.639.395 1.597.395 2.795 0 1.039-.079 1.837-.237 2.476-.158.64-.394 1.119-.71 1.438-.316.32-.71.56-1.183.719-.473.08-1.105.16-1.893.16-.552 0-1.105 0-1.736-.08-.552-.08-1.104-.16-1.656-.32v-7.588zm-4.181 9.825a8.46 8.46 0 001.657.4c.631.079 1.262.239 1.893.319.71.08 1.341.16 2.051.24.71.08 1.341.08 1.972.08 1.42 0 2.682-.08 3.707-.4a6.657 6.657 0 002.603-1.278c.71-.64 1.183-1.438 1.499-2.396.315-1.039.473-2.237.473-3.754 0-1.438-.158-2.716-.473-3.675-.316-.958-.71-1.757-1.341-2.316-.631-.559-1.341-.958-2.209-1.278a9.609 9.609 0 00-3.155-.32c-.947 0-1.814.08-2.603.32-.789.16-1.42.4-1.893.64v-6.63h-4.181v20.048zm34.391-8.706c0-1.438-.236-2.556-.788-3.435a4.374 4.374 0 00-2.446-1.757c-1.104-.32-2.524-.48-4.18-.48-.868 0-1.657 0-2.524.08-.789.08-1.657.16-2.367.32-.709.08-1.419.24-2.05.4l.788 2.955c.71-.24 1.499-.4 2.446-.48.946-.16 1.814-.16 2.839-.24.868 0 1.657 0 2.209.16.552.08 1.025.24 1.341.48.315.24.552.559.631.958.079.4.158.959.158 1.598-.71-.16-1.42-.24-2.13-.32-.71-.08-1.42-.08-2.13-.08-1.025 0-1.972.08-2.761.16-.867.08-1.577.32-2.129.719a3.114 3.114 0 00-1.42 1.438c-.316.639-.473 1.437-.473 2.476 0 1.278.236 2.236.709 2.955.474.719 1.262 1.198 2.288 1.518 1.104.32 2.524.399 4.338.399.631 0 1.262 0 1.893-.08.71-.08 1.341-.16 2.051-.24.71-.08 1.341-.24 2.051-.399.631-.16 1.262-.32 1.814-.48V25.16h-.158zm-4.101 6.55c-.473.159-1.026.239-1.657.319-.631.08-1.183.16-1.814.16-.868 0-1.499-.08-1.972-.16-.473-.08-.789-.32-.946-.64a2.482 2.482 0 01-.237-1.437c0-.639.079-1.038.315-1.358.237-.32.553-.479 1.026-.559.473-.08 1.104-.16 1.893-.16.631 0 1.262 0 1.814.08s1.105.08 1.578.16v3.594zm12.857-17.892h-4.181v20.687h4.181V13.818z" fill="#2D1686"/><path fill-rule="evenodd" clip-rule="evenodd" d="M0 25C0 11.182 11.043 0 24.689 0c7.888 0 14.83 3.754 19.325 9.505.71.878.552 2.156-.315 2.795-.868.72-2.13.56-2.76-.32-3.787-4.871-9.703-7.986-16.25-7.986C13.252 3.994 3.944 13.419 3.944 25s9.308 21.006 20.745 21.006c6.547 0 12.463-3.115 16.25-7.987.709-.878 1.971-1.038 2.76-.32.867.72 1.025 1.998.315 2.796C39.518 46.246 32.498 50 24.69 50 11.043 50 0 38.818 0 25z" fill="#2D1686"/><path fill-rule="evenodd" clip-rule="evenodd" d="M24.69 39.776c-8.047 0-14.594-6.629-14.594-14.776s6.547-14.776 14.593-14.776c10.018 0 22.717 11.82 22.717 14.776 0 2.955-12.7 14.776-22.717 14.776zm0-22.364c-4.181 0-7.494 3.435-7.494 7.588 0 4.153 3.391 7.588 7.493 7.588 4.18 0 7.493-3.435 7.493-7.588 0-4.153-3.391-7.588-7.493-7.588z" fill="#F25B24"/></g><defs><clipPath id="clip0_1:2804"><path fill="#fff" d="M0 0h242v50H0z"/></clipPath></defs></svg>
